X:1
T:clair de lune
T:clair de lune
T:beginner version
T:claude debussy arr. jahnavi arun
C:claude debussy
%%score { 1 | 2 }
L:1/8
M:3/4
K:C
V:1 treble nm="Piano" snm="Pno."
V:2 treble 
V:1
!pp! z4 g2- | g6 | e6 | z2 d2 e2 | d6- | d6 | z2!p! c2 d2 |!<(! c3 e- e2-!<)! |!>(! e3 c- c2!>)! | %9
 z2 B2 c2 | B6- | B6 | z2 A2 B2 |!<(! A2 d2 A2!<)! | G2 A2 G2 |!p! z2 F2 G2 | F6 |!>(! E6!>)! | %18
!<(! z2 E2 F2!<)! | E2 A2 E2 |!p! D2 E2 D2 | z2 C2 D2 | C6 |!>(! B,6!>)! | z2 E2 z2 | g6 | e6 | %27
 z2 d2 e2 | d6- | d6 |!<(! z2 c2 d2!<)! | g6 |!>(! e6!>)! |!p! z2 [FAd]2 e2 | d6 | c6 | %36
!<(! z2 [G_Bc]2 d2!<)! | a3 g- g2- |!>(! g3 e- e2!>)! | z2 d2 e2 | d3 c- c2- | c3 A- A2 |] %42
V:2
 z2 E4- | E6- | E6 | _A6- | A6- | A6 | E6- | E6- | E6 | D6- |!pp! D6- | D6 | C6- |!p! C6 | B,6 | %15
[K:bass] A,6- | A,6 | [^G,B,]6 | [=G,C]6- | [G,C]6 | [F,A,]6 | [E,A,]6- | [E,A,]6 | %23
 [D,F,]3 G,,- G,,2- | [C,,G,,]2 z2 [CE]2- |!pp! [CE]6- | [CE]6 | [F,,C,]4 z2 | [F,A,C]6- | %29
!p! [F,A,C]6 | [E,,C,]4 z2 |!p! [CE]6 | [G,C]6 | [F,,C,]4 z2 | [F,A,C]6- |!p! [F,A,C]6 | G,,4 z2 | %37
 [_B,CE]4!p! z2 | [_B,CE]4 z2 |!pp! A,,4 z2 | [E,A,D]6- | [E,A,D]3 C3 |] %42

